!!!OTL: 1978. Osterlied.
!!!ARE: Europa, Mitteleuropa, Deutschland
!!!SCT: E1978
!!!TXL: @@DE
!!!YEM: Copyright 1995, estate of Helmut Schaffrath.
**kern	**text
*ICvox	*
*M3/4	*
*met(3)	*
*k[]	*
*C:	*
{4cc	All
=1	=1
2cc	Welt
4cc	ſoll
=2	=2
(4cc	bil-
4ee)	.
4dd	-lig
=3	=3
(4cc	fröh-
4b)	.
4a	-lich
=4	=4
2g}	ſein
{4b	ʒu
=5	=5
2cc	die-
4b/	-ſer
=6	=6
2a	o-
4g	-ſter-
=7	=7
(4a	-li-
4cc)	.
4cc	-chen
=8	=8
2b}	Ʒeit.
{4g	Gott
=9	=9
(4e	hat
4f)	.
4g	ʒer-
=10	=10
2a	-ſtört
4g	die
=11	=11
2g	Vor-
4e	-höll-
=12	=12
2c}	-pein,
{4d	da
=13	=13
2e	man-
4d	-che
=14	=14
2e	Seeln
4a	ge-
=15	=15
(4a	-fan-
4g)	.
4f	-gen
=16	=16
2e;}	ſein.
==	==
!!!AGN: geistlich, Fest - Lied, Ostern
!!!ONB: ESAC (Essen Associative Code) Database: ERK3
!!!AMT: simple triple
!!!AIN: vox
!!!EED: Helmut Schaffrath
!!!EEV: 1.0
!!!GTL: Geistliche Lieder. 1. Christliche Festlieder: b) Osterkreis (Passionszeit, Ostern, Himmelfahrt, Pfingsten).
!!!URL-scan: https://rosdok.uni-rostock.de/mcrviewer/recordIdentifier/rosdok_ppn745177999/iview2/phys_0689.iview2?x=167.58329267015188&y=1641.7561506237835&scale=0.7014306698522891&rotation=0&layout=singlePageLayout
!!!ENC: Anna Maria Matuszewska
!!!EEV: 2025/10/01
*-	*-
